X: 12880
T: Ferry To Clare, The
R: jig
M: 6/8
K: Dmajor
|:def edB|BAF A2A|BdB AFA|BAF E2e|
def edB|BAF AFA|(3BcdB AFD|1 EDB, D2e:|2 EDB, D2f||
|:def a2f|edB B2A|BdB AFA|BAF E2e|
def a2f|edB B2A|BdB AFD|1 EDB, D2e:|2 EDB, D3||

